src/pos-icons/run.svg

<svg height="24" viewBox="0 0 24 24" width="24" xmlns="http://www.w3.org/2000/svg"><path d="m13.5 5.5c1.09 0 2-.92 2-2 0-1.12-.91-2-2-2-1.11 0-2 .88-2 2 0 1.08.89 2 2 2m-3.61 13.88 1-4.38 2.11 2v6h2v-7.5l-2.11-2 .61-3c1.29 1.5 3.29 2.5 5.5 2.5v-2c-1.91 0-3.5-1-4.31-2.42l-1-1.58c-.4-.62-1-1-1.69-1-.31 0-.5.08-.81.08l-5.19 2.2v4.72h2v-3.42l1.79-.7-1.6 8.12-4.9-1-.4 2z"/></svg>

<?xml version="1.0" encoding="UTF-8"?><!DOCTYPE svg PUBLIC "-//W3C//DTD SVG 1.1//EN" "http://www.w3.org/Graphics/SVG/1.1/DTD/svg11.dtd"><svg xmlns="http://www.w3.org/2000/svg" xmlns:xlink="http://www.w3.org/1999/xlink" version="1.1" id="mdi-run" width="24" height="24" viewBox="0 0 24 24"><path d="M13.5,5.5C14.59,5.5 15.5,4.58 15.5,3.5C15.5,2.38 14.59,1.5 13.5,1.5C12.39,1.5 11.5,2.38 11.5,3.5C11.5,4.58 12.39,5.5 13.5,5.5M9.89,19.38L10.89,15L13,17V23H15V15.5L12.89,13.5L13.5,10.5C14.79,12 16.79,13 19,13V11C17.09,11 15.5,10 14.69,8.58L13.69,7C13.29,6.38 12.69,6 12,6C11.69,6 11.5,6.08 11.19,6.08L6,8.28V13H8V9.58L9.79,8.88L8.19,17L3.29,16L2.89,18L9.89,19.38Z" /></svg>
